X:47
T:Wenlock Edge
M:3/4
L:1/4
C:trad
R:waltz
K:D
f/2g/2|"D"a>fd|d2f|"G"B2d|"D"A2e/2g/2|a2a|"G"b"D"a"G"g|"D"f"A"e"D"d|"A"e2A|"G"BB/2c/2d|"A"cde|"D"dd/2e/2f|"A"efg|"D"a>fd|"Em"eBc|"D"df"A"e|"D"d2:|
|:d|"A"c>de|"A"efg|"D"a"A"g"D"f|"A"e3e|"A"c>de|"A"efg|"D"a"A"g"D"f|"A"e2a|"D"f/2g/2aa|"A"eaa|"D"d/2e/2ff|"A"efg|"D"a>fd|"Em"eB"A"c|"D"df"A"e|"D"d2:|
